projects/packages/jetpack-mu-wpcom/src/assets/images/editor.svg

<svg fill="none" height="442" viewBox="0 0 534 442" width="534" xmlns="http://www.w3.org/2000/svg"><path d="m0 0h534v442h-534z" fill="#1381d8"/><path d="m76 60.377h381.368v381.368h-381.368z" fill="#fff"/><g fill="#e2e4e7"><path d="m98.9531 81.5635h337.228v42.3743h-337.228z"/><path d="m118.375 378.184h296.62v63.5614h-296.62z"/><path d="m139.562 293.434h105.936v63.5614h-105.936z"/><path d="m287.871 293.434h105.936v63.5614h-105.936z"/><path d="m76 145.124h381.368v127.123h-381.368z"/></g><rect height="22.0699" rx="2.20699" stroke="#1e1e1e" stroke-width="2.64839" width="22.0699" x="181.496" y="314.181"/><path d="m181.938 332.278 6.579-4.231c.628-.404 1.443-.369 2.034.088l2.916 2.25c.683.527 1.646.483 2.279-.102l7.379-6.833" stroke="#1e1e1e" stroke-linecap="round" stroke-linejoin="bevel" stroke-width="2.64839"/><rect height="22.0699" rx="2.20699" stroke="#1e1e1e" stroke-width="2.64839" width="22.0699" x="329.805" y="314.181"/><path d="m330.246 332.278 6.58-4.231c.628-.404 1.442-.369 2.033.088l2.917 2.25c.683.527 1.646.483 2.278-.102l7.379-6.833" stroke="#1e1e1e" stroke-linecap="round" stroke-linejoin="bevel" stroke-width="2.64839"/><rect height="22.0699" rx="2.20699" stroke="#1e1e1e" stroke-width="2.64839" width="22.0699" x="255.648" y="197.651"/><path d="m263.152 213.983v-10.593l8.828 5.296z" fill="#1e1e1e"/><path d="m271.832 424.089v-26.68" stroke="#1e1e1e" stroke-width="2.64839"/><path d="m263.984 424.089v-26.68" stroke="#1e1e1e" stroke-width="2.64839"/><path d="m277.867 397.162h-15.694" stroke="#1e1e1e" stroke-width="2.64839"/><path d="m261.632 404.471v7.188c-3.404-.623-5.984-3.605-5.984-7.188 0-3.584 2.58-6.565 5.984-7.188z" fill="#1e1e1e" stroke="#1e1e1e" stroke-width="2.64839"/><circle cx="266.683" cy="102.751" r="12.8006" stroke="#1e1e1e" stroke-width="2.64839"/><path d="m264.042 101.604 7.858-5.2702-2.558 8.3482-7.867 5.214z" fill="#1e1e1e"/></svg>

<svg width="534" height="442" viewBox="0 0 534 442" fill="none" xmlns="http://www.w3.org/2000/svg">
<path d="M0 0H534V442H0V0Z" fill="#1381D8"/>
<rect x="76" y="60.377" width="381.368" height="381.368" fill="white"/>
<rect x="98.9531" y="81.5635" width="337.228" height="42.3743" fill="#E2E4E7"/>
<rect x="118.375" y="378.184" width="296.62" height="63.5614" fill="#E2E4E7"/>
<rect x="139.562" y="293.434" width="105.936" height="63.5614" fill="#E2E4E7"/>
<rect x="287.871" y="293.434" width="105.936" height="63.5614" fill="#E2E4E7"/>
<rect x="76" y="145.124" width="381.368" height="127.123" fill="#E2E4E7"/>
<rect x="181.496" y="314.181" width="22.0699" height="22.0699" rx="2.20699" stroke="#1E1E1E" stroke-width="2.64839"/>
<path d="M181.938 332.278L188.517 328.047C189.145 327.643 189.96 327.678 190.551 328.135L193.467 330.385C194.15 330.912 195.113 330.868 195.746 330.283L203.125 323.45" stroke="#1E1E1E" stroke-width="2.64839" stroke-linecap="round" stroke-linejoin="bevel"/>
<rect x="329.805" y="314.181" width="22.0699" height="22.0699" rx="2.20699" stroke="#1E1E1E" stroke-width="2.64839"/>
<path d="M330.246 332.278L336.826 328.047C337.454 327.643 338.268 327.678 338.859 328.135L341.776 330.385C342.459 330.912 343.422 330.868 344.054 330.283L351.433 323.45" stroke="#1E1E1E" stroke-width="2.64839" stroke-linecap="round" stroke-linejoin="bevel"/>
<rect x="255.648" y="197.651" width="22.0699" height="22.0699" rx="2.20699" stroke="#1E1E1E" stroke-width="2.64839"/>
<path d="M263.152 213.983V203.39L271.98 208.686L263.152 213.983Z" fill="#1E1E1E"/>
<line x1="271.832" y1="424.089" x2="271.832" y2="397.409" stroke="#1E1E1E" stroke-width="2.64839"/>
<line x1="263.984" y1="424.089" x2="263.984" y2="397.409" stroke="#1E1E1E" stroke-width="2.64839"/>
<line x1="277.867" y1="397.162" x2="262.173" y2="397.162" stroke="#1E1E1E" stroke-width="2.64839"/>
<path d="M261.632 404.471V411.659C258.228 411.036 255.648 408.054 255.648 404.471C255.648 400.887 258.228 397.906 261.632 397.283V404.471Z" fill="#1E1E1E" stroke="#1E1E1E" stroke-width="2.64839"/>
<circle cx="266.683" cy="102.751" r="12.8006" stroke="#1E1E1E" stroke-width="2.64839"/>
<path d="M264.042 101.604L271.9 96.3338L269.342 104.682L261.475 109.896L264.042 101.604Z" fill="#1E1E1E"/>
</svg>
